X:12003
T:Liberty Bell
T:Monty Python
R:Jig
C:John Philip Sousa, 1893
O:USA
Z:Paul Hardy's Session Tunebook 2015 (see www.paulhardy.net). Creative Commons cc by-nc-sa licenced.
M:6/8
L:1/8
Q:3/8=100
K:G
d/c/|"G"B2 B B_B=B|g2 d d2 B|"Am"c2 c c2 d|e3 e2 c|"D"A2 A A^GA|"D7"f2 e e2 c|"G"B2 B "D7"B2 c|"G"d3-"D7"d2 c|
"G"B2 B B_B=B|g2 d d2 B|"A"^c2 a a2 a|"A7"a3 a2 g|"D"f2 a a^ga|"A7"e2 a a^ga|"D7"d2 ^c d2 c|d3 d2:|
|:c|"G"B_B=B "D7"e2 d|"G"B3 G3|"C"E3 "D7"A3|"G"G3 G2 G|"D7"ABd f2 e|"G"d3 g3|"D"f3 "A7"e3|"D7"d3 d2 d|
"C"e2 e e_e=e|"B7"f3 f3|"Em"g2 g aga|"B"b3 b2 b|"C"a2 g e2 c|"G"B3 G3|"D7"A3 F3|"G"G3 G2:|
K:C
G|:"C"E3 F3|^F3 G3|e2 e e2 _e|e3 e2 G|E3 F3|^F3 G3|"G"f2 f f2 e|f3 f2 e|d3 "Gdim"^c3|"G"d2 G ^F2 G|
"C"e3 "Cdim"_e3|"C"e2 G ^F2 G|1"G"B3 d3|"D7"c2 d A2 c|"G"B2 c A2 B|"G7"G2 A F2 G:|2 "F"A3 f3|"C"e2 c "G"d2 B|"C"c3 c3|c6|]

